X:1
T:Come in, O Blessèd One
T:John Robson Sweney
T:Come in, O Blessèd One
T:Public Domain
T:Public Domain
C:John Robson Sweney
Z:Public Domain
%%score ( 1 2 ) ( 3 4 )
L:1/8
M:4/4
K:Ab
V:1 treble 
V:2 treble 
V:3 bass 
V:4 bass 
V:1
 [CE]2 | [CA]3 [CA] [B,G]2 [CA]2 | [EB]2 [Ec]2 [Ed]2 [Ed]2 | [Ac]3 [FB] [EA]2 [DG]2 | [CA]6 [CE]2 | %5
w: 1.~Come|in, come in, O|bless- èd One; My|heart is all Thine|own; Here|
w: 2.~Come|in, come in, O|bless- èd One; Thou|King of kings di-|vine; My|
w: 3.~Come|in, come in, O|bless- èd One; Whose|name the an- gels|praise, While|
w: 4.~Come|in, O sun of|right- eous- ness, And|source of end- less|day, Thou|
 [CA]3 [CA] [CA]2 [DB]2 | [Ec]2 [Fd]2 [Ec]2 [Ec]2 | [EB]3 [EB] [Ac]2 [A=d]2 | [Ge]6 z2 || %9
w: make Thy con- stant|dwell- ing place, Thy|tem- ple and Thy|throne.|
w: life, my will, my|ev- ’ry pow’r, With-|out re- serve are|Thine.|
w: mor- tal tongues in|hum- bler strains, Their|grate- ful trib- ute|raise.|
w: Lamb of God, whose|cleans- ing blood Has|washed my sins a-|way.|
"^Refrain" (AAA)[Ae] [Af][Ae] z2 | (EEE)[Ec] [Fd][Ec] z2 | [EA]3 [EA] (AB) [Ec]2 | %12
w: |||
w: Hal- * * le- lu- jah,|le- * * lu- jah, For|grace that makes * me|
w: |||
w: |||
 [Ed]2 [Ec]2 ([EB]2 [Ge]2) | (AAA)[Ae] [Af][Ae] z2 | (EEE)[Ec] [Fd][Ec] z2 | %15
w: |||
w: Hal- le- lu- *|jah, * * hal- le- lu-|Hal- * * le- lu- jah,|
w: |||
w: |||
 [CA]3 [CA] ([DB][Ec]) [Fd]2 | [Ec]2 [DB]2 [CA]2 |] %17
w: ||
w: to Thee. * * *||
w: ||
w: ||
V:2
 x2 | x8 | x8 | x8 | x8 | x8 | x8 | x8 | x8 || e3 x5 | c3 x5 | x4 E2 x2 | x8 | e3 x5 | c3 x5 | x8 | %16
w: ||||||||||||||||
w: |||||||||hal-|the|free;||jah,|Lord,||
 x6 |] %17
w: |
w: |
V:3
 [A,,E,]2 | [A,,E,]3 [A,,E,] [D,E,]2 [C,E,]2 | [B,,G,]2 [A,,A,]2 [G,,B,]2 [G,,B,]2 | %3
w: ~|~ ~ ~ ~|~ ~ ~ ~|
 [A,,E]3 [D,D] [E,C]2 [E,B,]2 | [A,,A,]6 [A,,A,]2 | [A,,E,]3 [A,,E,] [A,,E,]2 [A,,E,]2 | %6
w: ~ ~ ~ ~|~ ~|~ ~ ~ ~|
 [A,,A,]2 [A,,A,]2 [A,,A,]2 [A,,A,]2 | [B,,G,]3 [B,,G,] [B,,F,]2 [B,,B,]2 | B,4 B,2 z2 || %9
w: ~ ~ ~ ~|~ ~ ~ ~|~ ~|
 [A,C][A,C][A,C][A,C] [A,D][A,C] z2 | [A,,A,][A,,A,][A,,A,][A,,A,] [A,,A,][A,,A,] z2 | %11
w: ry, hal- le- lu- jah, glo-|ry, hal- le- lu- jah, ~|
 [A,,C]3 [A,,C] ([C,A,][B,,G,]) [A,,A,]2 | [G,,B,]2 [A,,A,]2 (G,2 D2) | %13
w: ~ ~ ~ * ~|~ ~ Glo- *|
 [A,C][A,C][A,C][A,C] [A,D][A,C] z2 | [A,,A,][A,,A,][A,,A,][A,,A,] [A,,A,][A,,A,] z2 | %15
w: hal- le- lu- jah, glo- ry,|hal- le- lu- jah, * *|
 [A,,A,]3 [A,,E,] ([D,F,][C,=A,]) [B,,B,]2 | E,2 [E,G,]2 [A,,A,]2 |] %17
w: ||
V:4
 x2 | x8 | x8 | x8 | x8 | x8 | x8 | x8 | E,6 x2 || x8 | x8 | x8 | x4 E,4 | x8 | x8 | x8 | E,2 x4 |] %17
w: ||||||||Glo-||||ry,|||||

